src/main/resources/icons/UIDesignerIcons/com/intellij/uiDesigner/icons/drag_dark.svg

<svg xmlns="http://www.w3.org/2000/svg" width="11" height="11" viewBox="0 0 11 11"><rect id="frame" width="11" height="11" fill="none"/><path fill="#AFB1B3" fill-rule="evenodd" d="M10 11H8v-1h2V8h1v3h-1zm1-10v2h-1V1H8V0h3v1zM1 10h2v1H0V8h1v2zm0-9v2H0V0h3v1H1zm5 4h2.5V3L11 5.5 8.5 8V6H6v2.5h2L5.5 11 3 8.5h2V6H2.5v2L0 5.5 2.5 3v2H5V2.5H3L5.5 0 8 2.5H6V5z"/></svg>

<svg xmlns="http://www.w3.org/2000/svg" width="11" height="11" viewBox="0 0 11 11">
  <path fill="#AFB1B3" fill-rule="evenodd" d="M10,11 L8,11 L8,10 L10,10 L10,8 L11,8 L11,11 L10,11 Z M11,1 L11,3 L10,3 L10,1 L8,1 L8,0 L11,0 L11,1 Z M1,10 L3,10 L3,11 L1,11 L-1.17239551e-13,11 L-1.17239551e-13,8 L1,8 L1,10 Z M1,1 L1,3 L-1.17239551e-13,3 L-1.17239551e-13,1 L-1.17239551e-13,0 L3,0 L3,1 L1,1 Z M6,5 L8.5,5 L8.5,3 L11,5.5 L8.5,8 L8.5,6 L6,6 L6,8.5 L8,8.5 L5.5,11 L3,8.5 L5,8.5 L5,6 L2.5,6 L2.5,8 L-4.01456646e-13,5.5 L2.5,3 L2.5,5 L5,5 L5,2.5 L3,2.5 L5.5,0 L8,2.5 L6,2.5 L6,5 Z"/>
</svg>
